svgs/solid/angel.svg

<svg xmlns="http://www.w3.org/2000/svg" viewBox="0 0 576 512"><!-- Font Awesome Pro 6.0.0-alpha2 by @fontawesome - https://fontawesome.com License - https://fontawesome.com/license (Commercial License) --><path d="M208.002 144C208.002 188.25 243.751 224 288 224S367.998 188.25 367.998 144S332.249 64 288 64S208.002 99.75 208.002 144ZM184.503 101.375C188.628 91.5 194.378 82.5 201.128 74.25C195.253 70.25 192.003 66.375 192.003 64C192.003 56 226.002 32 288 32S383.997 56 383.997 64C383.997 66.25 380.747 70.125 374.872 74.25C381.497 82.625 387.247 91.5 391.497 101.375C406.746 90.875 415.996 78 415.996 64C415.996 28.75 358.748 0 288 0S160.004 28.75 160.004 64C160.004 78 169.254 90.875 184.503 101.375ZM571.741 453.125L533.617 374.5C526.993 361 526.993 344.875 533.617 331.375C538.367 321.625 542.242 314.75 545.492 309.25C554.992 292.75 559.992 282.75 559.992 256C559.992 204.875 513.118 160 459.62 160C434.746 160 410.621 170.25 393.247 188.125L320.624 261.5C310.249 258.125 299.375 256.125 288.125 256.125C276.75 256.125 266.001 258.125 255.626 261.5L183.003 188.25C165.504 170.25 141.255 160 116.505 160C63.007 160 16.008 204.875 16.008 256C16.008 282.75 21.008 292.75 30.508 309.25C33.758 314.75 37.633 321.5 42.383 331.25C49.007 344.75 49.007 360.875 42.383 374.375L4.259 453.125C-2.116 466 -1.241 480.875 6.259 493C13.758 504.875 26.508 512 40.508 512H535.617C549.492 512 562.242 504.875 569.741 493C577.241 480.875 578.116 465.875 571.741 453.125ZM195.378 313.25L120.005 464H52.257L85.631 395.375C98.631 368.75 98.631 336.875 85.631 310.25C80.256 299.125 75.757 291.375 72.132 285.25C64.882 272.75 64.007 271.25 64.007 256C64.007 231.25 89.506 208 116.38 208C128.505 208 139.88 212.875 148.629 221.875L213.752 287.5C206.503 295 200.253 303.625 195.378 313.25ZM455.995 464L380.622 313.25C375.747 303.625 369.497 295 362.248 287.5L427.496 221.75C436.12 212.875 447.495 208 459.62 208C486.619 208 511.993 231.25 511.993 256C511.993 271.25 511.118 272.75 503.868 285.25C500.243 291.375 495.869 299.25 490.369 310.25C477.369 336.875 477.369 368.75 490.369 395.375L523.743 464H455.995Z"/></svg>

<svg xmlns="http://www.w3.org/2000/svg" viewBox="0 0 576 512"><!-- Font Awesome Pro 5.15.1 by @fontawesome - https://fontawesome.com License - https://fontawesome.com/license (Commercial License) --><path d="M208 144c0 44.2 35.8 80 80 80s80-35.8 80-80-35.8-80-80-80-80 35.8-80 80zm-23.5-42.6c4.1-9.9 9.9-18.9 16.6-27.1-5.8-4.1-9.1-7.9-9.1-10.3 0-8 34-32 96-32s96 24 96 32c0 2.3-3.3 6.1-9.1 10.3 6.6 8.3 12.4 17.2 16.6 27.1C406.7 90.9 416 78 416 64c0-35.3-57.3-64-128-64S160 28.7 160 64c0 14 9.3 26.9 24.5 37.4zm387.3 351.7l-38.2-78.6c-6.6-13.5-6.6-29.6 0-43.1 4.8-9.8 8.7-16.7 11.9-22.1C555 292.7 560 282.8 560 256c0-51.1-46.9-96-100.4-96-24.8 0-49 10.3-66.3 28.1l-72.7 73.4c-10.3-3.4-21.2-5.4-32.5-5.4s-22.1 2-32.5 5.4L183 188.2c-17.5-18-41.7-28.2-66.5-28.2C63 160 16 204.9 16 256c0 26.8 5 36.7 14.5 53.2 3.2 5.5 7.1 12.3 11.9 22.1 6.6 13.5 6.6 29.6 0 43.1L4.2 453.1C-2.1 466-1.3 480.9 6.3 493c7.5 11.9 20.2 19 34.2 19h495.1c13.9 0 26.7-7.1 34.2-19 7.5-12.1 8.3-27.1 2-39.9zM195.4 313.2L120 464H52.2l33.4-68.6c13-26.6 13-58.5 0-85.1-5.4-11.2-9.9-18.9-13.5-25.1-7.2-12.4-8.1-14-8.1-29.2 0-24.7 25.5-48 52.4-48 12.1 0 23.5 4.9 32.2 13.9l65.1 65.6c-7.2 7.5-13.5 16.1-18.3 25.7zM456 464l-75.4-150.8c-4.8-9.6-11.1-18.2-18.4-25.7l65.3-65.8c8.6-8.8 20-13.7 32.1-13.7 27 0 52.4 23.3 52.4 48 0 15.2-.9 16.8-8.1 29.2-3.6 6.2-8 14-13.5 25.1-13 26.6-13 58.5 0 85.1l33.4 68.6H456z"/></svg>
